images/3246235.svg

<?xml version="1.0" encoding="UTF-8"?>
<svg xmlns="http://www.w3.org/2000/svg" xmlns:xlink="http://www.w3.org/1999/xlink" width="300pt" height="300pt" viewBox="0 0 300 300" version="1.1">
<defs>
<g>
<symbol overflow="visible" id="glyph0-0">
<path style="stroke:none;" d="M 0.453125 1.59375 L 0.453125 -6.34375 L 4.953125 -6.34375 L 4.953125 1.59375 Z M 0.953125 1.09375 L 4.453125 1.09375 L 4.453125 -5.84375 L 0.953125 -5.84375 Z M 0.953125 1.09375 "/>
</symbol>
<symbol overflow="visible" id="glyph0-1">
<path style="stroke:none;" d="M 3.546875 -5.953125 C 2.898438 -5.953125 2.382812 -5.710938 2 -5.234375 C 1.625 -4.753906 1.4375 -4.101562 1.4375 -3.28125 C 1.4375 -2.445312 1.625 -1.789062 2 -1.3125 C 2.382812 -0.832031 2.898438 -0.59375 3.546875 -0.59375 C 4.191406 -0.59375 4.703125 -0.832031 5.078125 -1.3125 C 5.453125 -1.789062 5.640625 -2.445312 5.640625 -3.28125 C 5.640625 -4.101562 5.453125 -4.753906 5.078125 -5.234375 C 4.703125 -5.710938 4.191406 -5.953125 3.546875 -5.953125 Z M 3.546875 -6.6875 C 4.460938 -6.6875 5.195312 -6.375 5.75 -5.75 C 6.300781 -5.132812 6.578125 -4.3125 6.578125 -3.28125 C 6.578125 -2.238281 6.300781 -1.410156 5.75 -0.796875 C 5.195312 -0.179688 4.460938 0.125 3.546875 0.125 C 2.617188 0.125 1.878906 -0.179688 1.328125 -0.796875 C 0.773438 -1.410156 0.5 -2.238281 0.5 -3.28125 C 0.5 -4.3125 0.773438 -5.132812 1.328125 -5.75 C 1.878906 -6.375 2.617188 -6.6875 3.546875 -6.6875 Z M 3.546875 -6.6875 "/>
</symbol>
<symbol overflow="visible" id="glyph0-2">
<path style="stroke:none;" d="M 0.890625 -6.5625 L 1.765625 -6.5625 L 1.765625 -3.875 L 5 -3.875 L 5 -6.5625 L 5.890625 -6.5625 L 5.890625 0 L 5 0 L 5 -3.125 L 1.765625 -3.125 L 1.765625 0 L 0.890625 0 Z M 0.890625 -6.5625 "/>
</symbol>
<symbol overflow="visible" id="glyph0-3">
<path style="stroke:none;" d="M 0.890625 -6.5625 L 2.078125 -6.5625 L 4.984375 -1.078125 L 4.984375 -6.5625 L 5.84375 -6.5625 L 5.84375 0 L 4.65625 0 L 1.75 -5.484375 L 1.75 0 L 0.890625 0 Z M 0.890625 -6.5625 "/>
</symbol>
</g>
</defs>
<g id="surface39709">
<rect x="0" y="0" width="300" height="300" style="fill:rgb(100%,100%,100%);fill-opacity:1;stroke:none;"/>
<path style="fill:none;stroke-width:1;stroke-linecap:butt;stroke-linejoin:miter;stroke:rgb(0%,0%,0%);stroke-opacity:1;stroke-miterlimit:10;" d="M 131.402344 119.101562 L 131.402344 119.101562 M 130.039062 116.425781 L 129.207031 117.054688 M 128.675781 113.753906 L 127.011719 115.007812 M 127.316406 111.082031 L 124.816406 112.964844 M 125.953125 108.410156 L 122.621094 110.917969 M 124.589844 105.734375 L 120.429688 108.875 M 123.230469 103.0625 L 118.234375 106.828125 M 122.074219 100.792969 L 116.371094 105.089844 "/>
<path style="fill:none;stroke-width:1.2;stroke-linecap:butt;stroke-linejoin:miter;stroke:rgb(0%,0%,0%);stroke-opacity:1;stroke-miterlimit:10;" d="M 131.402344 119.101562 L 151.484375 116.632812 "/>
<path style="fill:none;stroke-width:1.2;stroke-linecap:butt;stroke-linejoin:miter;stroke:rgb(0%,0%,0%);stroke-opacity:1;stroke-miterlimit:10;" d="M 131.402344 119.101562 L 127.449219 128.414062 "/>
<path style="fill:none;stroke-width:1.2;stroke-linecap:butt;stroke-linejoin:miter;stroke:rgb(0%,0%,100%);stroke-opacity:1;stroke-miterlimit:10;" d="M 127.449219 128.414062 L 123.496094 137.730469 "/>
<path style="fill:none;stroke-width:1;stroke-linecap:butt;stroke-linejoin:miter;stroke:rgb(0%,0%,0%);stroke-opacity:1;stroke-miterlimit:10;" d="M 151.484375 116.632812 L 151.484375 116.632812 M 153.375 114.300781 L 152.460938 113.796875 M 155.261719 111.96875 L 153.4375 110.960938 M 157.148438 109.640625 L 154.414062 108.121094 M 159.039062 107.308594 L 155.390625 105.285156 M 160.925781 104.976562 L 156.367188 102.449219 M 162.8125 102.644531 L 157.34375 99.613281 M 164.417969 100.664062 L 158.171875 97.203125 "/>
<path style="fill:none;stroke-width:1.2;stroke-linecap:butt;stroke-linejoin:miter;stroke:rgb(0%,0%,0%);stroke-opacity:1;stroke-miterlimit:10;" d="M 165.289062 131.433594 L 151.484375 116.632812 "/>
<path style="fill:none;stroke-width:1.2;stroke-linecap:butt;stroke-linejoin:miter;stroke:rgb(0%,0%,0%);stroke-opacity:1;stroke-miterlimit:10;" d="M 161.296875 98.933594 L 181.160156 102.792969 "/>
<path style="fill:none;stroke-width:1;stroke-linecap:butt;stroke-linejoin:miter;stroke:rgb(0%,0%,0%);stroke-opacity:1;stroke-miterlimit:10;" d="M 183.625 122.878906 L 183.625 122.878906 M 183.785156 119.882812 L 182.75 120.011719 M 183.941406 116.886719 L 181.871094 117.140625 M 184.097656 113.890625 L 180.992188 114.273438 M 184.253906 110.894531 L 180.117188 111.402344 M 184.414062 107.898438 L 179.238281 108.535156 M 184.570312 104.902344 L 178.359375 105.667969 M 184.703125 102.359375 L 177.613281 103.230469 "/>
<path style="fill:none;stroke-width:1.2;stroke-linecap:butt;stroke-linejoin:miter;stroke:rgb(0%,0%,0%);stroke-opacity:1;stroke-miterlimit:10;" d="M 183.625 122.878906 L 165.289062 131.433594 "/>
<path style="fill:none;stroke-width:1.2;stroke-linecap:butt;stroke-linejoin:miter;stroke:rgb(0%,0%,0%);stroke-opacity:1;stroke-miterlimit:10;" d="M 200.203125 134.484375 L 183.625 122.878906 "/>
<path style="fill:none;stroke-width:1.2;stroke-linecap:butt;stroke-linejoin:miter;stroke:rgb(0%,0%,0%);stroke-opacity:1;stroke-miterlimit:10;" d="M 165.289062 131.433594 L 163.523438 151.589844 "/>
<path style="fill:none;stroke-width:1;stroke-linecap:butt;stroke-linejoin:miter;stroke:rgb(0%,0%,0%);stroke-opacity:1;stroke-miterlimit:10;" d="M 165.289062 131.433594 L 165.289062 131.433594 M 162.324219 131.902344 L 162.664062 132.886719 M 159.359375 132.371094 L 160.039062 134.34375 M 156.398438 132.839844 L 157.417969 135.796875 M 153.433594 133.308594 L 154.792969 137.25 M 150.472656 133.777344 L 152.167969 138.707031 M 147.507812 134.246094 L 149.546875 140.160156 M 144.992188 134.644531 L 147.316406 141.398438 "/>
<path style="fill:none;stroke-width:1.2;stroke-linecap:butt;stroke-linejoin:miter;stroke:rgb(0%,0%,0%);stroke-opacity:1;stroke-miterlimit:10;" d="M 163.523438 151.589844 L 180.101562 163.195312 "/>
<path style=" stroke:none;fill-rule:nonzero;fill:rgb(0%,0%,0%);fill-opacity:1;" d="M 198.441406 154.644531 L 178.59375 159.960938 L 181.613281 166.433594 Z M 198.441406 154.644531 "/>
<path style="fill:none;stroke-width:1.2;stroke-linecap:butt;stroke-linejoin:miter;stroke:rgb(0%,0%,0%);stroke-opacity:1;stroke-miterlimit:10;" d="M 198.441406 154.644531 L 200.203125 134.484375 "/>
<path style="fill:none;stroke-width:1.2;stroke-linecap:butt;stroke-linejoin:miter;stroke:rgb(0%,0%,0%);stroke-opacity:1;stroke-miterlimit:10;" d="M 215.019531 166.25 L 198.441406 154.644531 "/>
<path style=" stroke:none;fill-rule:nonzero;fill:rgb(0%,0%,0%);fill-opacity:1;" d="M 200.203125 134.484375 L 220.054688 129.167969 L 217.035156 122.695312 Z M 200.203125 134.484375 "/>
<path style="fill:none;stroke-width:1.2;stroke-linecap:butt;stroke-linejoin:miter;stroke:rgb(0%,0%,0%);stroke-opacity:1;stroke-miterlimit:10;" d="M 218.542969 125.929688 L 235.121094 137.535156 "/>
<path style=" stroke:none;fill-rule:nonzero;fill:rgb(0%,0%,0%);fill-opacity:1;" d="M 233.359375 157.695312 L 238.679688 137.847656 L 231.5625 137.226562 Z M 233.359375 157.695312 "/>
<path style="fill:none;stroke-width:1.2;stroke-linecap:butt;stroke-linejoin:miter;stroke:rgb(0%,0%,0%);stroke-opacity:1;stroke-miterlimit:10;" d="M 233.359375 157.695312 L 215.019531 166.25 "/>
<path style="fill:none;stroke-width:1.2;stroke-linecap:butt;stroke-linejoin:miter;stroke:rgb(0%,0%,0%);stroke-opacity:1;stroke-miterlimit:10;" d="M 249.933594 169.300781 L 233.359375 157.695312 "/>
<path style="fill:none;stroke-width:1.2;stroke-linecap:butt;stroke-linejoin:miter;stroke:rgb(0%,0%,0%);stroke-opacity:1;stroke-miterlimit:10;" d="M 215.019531 166.25 L 213.257812 186.40625 "/>
<path style="fill:none;stroke-width:1;stroke-linecap:butt;stroke-linejoin:miter;stroke:rgb(0%,0%,0%);stroke-opacity:1;stroke-miterlimit:10;" d="M 215.019531 166.25 L 215.019531 166.25 M 212.121094 167.023438 L 212.5625 167.96875 M 209.222656 167.800781 L 210.105469 169.691406 M 206.324219 168.578125 L 207.648438 171.414062 M 203.425781 169.355469 L 205.191406 173.132812 M 200.53125 170.128906 L 202.734375 174.855469 M 197.632812 170.90625 L 200.277344 176.578125 M 195.171875 171.566406 L 198.1875 178.039062 "/>
<path style="fill:none;stroke-width:1.2;stroke-linecap:butt;stroke-linejoin:miter;stroke:rgb(0%,0%,0%);stroke-opacity:1;stroke-miterlimit:10;" d="M 213.257812 186.40625 L 229.832031 198.015625 "/>
<path style="fill:none;stroke-width:1.2;stroke-linecap:butt;stroke-linejoin:miter;stroke:rgb(0%,0%,0%);stroke-opacity:1;stroke-miterlimit:10;" d="M 229.832031 198.015625 L 248.171875 189.460938 "/>
<path style="fill:none;stroke-width:1.2;stroke-linecap:butt;stroke-linejoin:miter;stroke:rgb(0%,0%,0%);stroke-opacity:1;stroke-miterlimit:10;" d="M 248.171875 189.460938 L 249.933594 169.300781 "/>
<path style=" stroke:none;fill-rule:nonzero;fill:rgb(0%,0%,0%);fill-opacity:1;" d="M 248.171875 189.460938 L 262.703125 203.992188 L 266.796875 198.140625 Z M 248.171875 189.460938 "/>
<path style=" stroke:none;fill-rule:nonzero;fill:rgb(100%,100%,100%);fill-opacity:1;" d="M 257.75 195.566406 L 272.75 195.566406 L 272.75 206.566406 L 257.75 206.566406 Z M 257.75 195.566406 "/>
<g style="fill:rgb(100%,0%,0%);fill-opacity:1;">
  <use xlink:href="#glyph0-1" x="257.75" y="204.229492"/>
  <use xlink:href="#glyph0-2" x="265.091797" y="204.229492"/>
</g>
<path style="fill:none;stroke-width:1.2;stroke-linecap:butt;stroke-linejoin:miter;stroke:rgb(0%,0%,100%);stroke-opacity:1;stroke-miterlimit:10;" d="M 123.496094 137.730469 L 113.453125 138.960938 "/>
<path style="fill:none;stroke-width:1.2;stroke-linecap:butt;stroke-linejoin:miter;stroke:rgb(0%,0%,0%);stroke-opacity:1;stroke-miterlimit:10;" d="M 113.453125 138.960938 L 103.410156 140.195312 "/>
<path style="fill:none;stroke-width:1.2;stroke-linecap:butt;stroke-linejoin:miter;stroke:rgb(0%,0%,0%);stroke-opacity:1;stroke-miterlimit:10;" d="M 135.675781 153.890625 L 129.585938 145.808594 "/>
<path style="fill:none;stroke-width:1.2;stroke-linecap:butt;stroke-linejoin:miter;stroke:rgb(0%,0%,100%);stroke-opacity:1;stroke-miterlimit:10;" d="M 129.585938 145.808594 L 123.496094 137.730469 "/>
<path style=" stroke:none;fill-rule:nonzero;fill:rgb(100%,100%,100%);fill-opacity:1;" d="M 120.496094 132.230469 L 127.496094 132.230469 L 127.496094 143.230469 L 120.496094 143.230469 Z M 120.496094 132.230469 "/>
<g style="fill:rgb(0%,0%,100%);fill-opacity:1;">
  <use xlink:href="#glyph0-3" x="120.496094" y="140.893555"/>
</g>
<path style="fill:none;stroke-width:1.2;stroke-linecap:butt;stroke-linejoin:miter;stroke:rgb(0%,0%,0%);stroke-opacity:1;stroke-miterlimit:10;" d="M 103.410156 140.195312 L 95.503906 158.824219 "/>
<path style="fill:none;stroke-width:1.2;stroke-linecap:butt;stroke-linejoin:miter;stroke:rgb(0%,0%,0%);stroke-opacity:1;stroke-miterlimit:10;" d="M 95.503906 158.824219 L 107.683594 174.984375 "/>
<path style="fill:none;stroke-width:1.2;stroke-linecap:butt;stroke-linejoin:miter;stroke:rgb(0%,0%,0%);stroke-opacity:1;stroke-miterlimit:10;" d="M 92.921875 163.304688 L 102.664062 176.234375 "/>
<path style="fill:none;stroke-width:1.2;stroke-linecap:butt;stroke-linejoin:miter;stroke:rgb(0%,0%,0%);stroke-opacity:1;stroke-miterlimit:10;" d="M 75.417969 161.292969 L 95.503906 158.824219 "/>
<path style="fill:none;stroke-width:1.2;stroke-linecap:butt;stroke-linejoin:miter;stroke:rgb(0%,0%,0%);stroke-opacity:1;stroke-miterlimit:10;" d="M 107.683594 174.984375 L 99.777344 193.613281 "/>
<path style="fill:none;stroke-width:1.2;stroke-linecap:butt;stroke-linejoin:miter;stroke:rgb(0%,0%,0%);stroke-opacity:1;stroke-miterlimit:10;" d="M 107.683594 174.984375 L 117.726562 173.75 "/>
<path style="fill:none;stroke-width:1.2;stroke-linecap:butt;stroke-linejoin:miter;stroke:rgb(100%,0%,0%);stroke-opacity:1;stroke-miterlimit:10;" d="M 117.726562 173.75 L 127.769531 172.515625 "/>
<path style="fill:none;stroke-width:1.2;stroke-linecap:butt;stroke-linejoin:miter;stroke:rgb(0%,0%,0%);stroke-opacity:1;stroke-miterlimit:10;" d="M 99.777344 193.613281 L 79.695312 196.078125 "/>
<path style="fill:none;stroke-width:1.2;stroke-linecap:butt;stroke-linejoin:miter;stroke:rgb(0%,0%,0%);stroke-opacity:1;stroke-miterlimit:10;" d="M 97.191406 189.132812 L 81.121094 191.105469 "/>
<path style="fill:none;stroke-width:1.2;stroke-linecap:butt;stroke-linejoin:miter;stroke:rgb(0%,0%,0%);stroke-opacity:1;stroke-miterlimit:10;" d="M 79.695312 196.078125 L 67.515625 179.917969 "/>
<path style="fill:none;stroke-width:1.2;stroke-linecap:butt;stroke-linejoin:miter;stroke:rgb(0%,0%,0%);stroke-opacity:1;stroke-miterlimit:10;" d="M 67.515625 179.917969 L 75.417969 161.292969 "/>
<path style="fill:none;stroke-width:1.2;stroke-linecap:butt;stroke-linejoin:miter;stroke:rgb(0%,0%,0%);stroke-opacity:1;stroke-miterlimit:10;" d="M 72.6875 179.917969 L 79.011719 165.015625 "/>
<path style="fill:none;stroke-width:1.2;stroke-linecap:butt;stroke-linejoin:miter;stroke:rgb(0%,0%,0%);stroke-opacity:1;stroke-miterlimit:10;" d="M 67.515625 179.917969 L 57.472656 181.152344 "/>
<path style="fill:none;stroke-width:1.2;stroke-linecap:butt;stroke-linejoin:miter;stroke:rgb(100%,0%,0%);stroke-opacity:1;stroke-miterlimit:10;" d="M 57.472656 181.152344 L 47.429688 182.386719 "/>
<path style="fill:none;stroke-width:1.2;stroke-linecap:butt;stroke-linejoin:miter;stroke:rgb(100%,0%,0%);stroke-opacity:1;stroke-miterlimit:10;" d="M 47.429688 182.386719 L 41.339844 174.304688 "/>
<path style="fill:none;stroke-width:1.2;stroke-linecap:butt;stroke-linejoin:miter;stroke:rgb(0%,0%,0%);stroke-opacity:1;stroke-miterlimit:10;" d="M 41.339844 174.304688 L 35.25 166.226562 "/>
<path style=" stroke:none;fill-rule:nonzero;fill:rgb(100%,100%,100%);fill-opacity:1;" d="M 43.429688 176.886719 L 51.429688 176.886719 L 51.429688 187.886719 L 43.429688 187.886719 Z M 43.429688 176.886719 "/>
<g style="fill:rgb(100%,0%,0%);fill-opacity:1;">
  <use xlink:href="#glyph0-1" x="43.429688" y="185.549805"/>
</g>
<path style="fill:none;stroke-width:1.2;stroke-linecap:butt;stroke-linejoin:miter;stroke:rgb(100%,0%,0%);stroke-opacity:1;stroke-miterlimit:10;" d="M 127.769531 172.515625 L 131.722656 163.203125 "/>
<path style="fill:none;stroke-width:1.2;stroke-linecap:butt;stroke-linejoin:miter;stroke:rgb(0%,0%,0%);stroke-opacity:1;stroke-miterlimit:10;" d="M 131.722656 163.203125 L 135.675781 153.890625 "/>
<path style=" stroke:none;fill-rule:nonzero;fill:rgb(100%,100%,100%);fill-opacity:1;" d="M 123.769531 167.015625 L 131.769531 167.015625 L 131.769531 178.015625 L 123.769531 178.015625 Z M 123.769531 167.015625 "/>
<g style="fill:rgb(100%,0%,0%);fill-opacity:1;">
  <use xlink:href="#glyph0-1" x="123.769531" y="175.678711"/>
</g>
</g>
</svg>

<svg xmlns="http://www.w3.org/2000/svg" xmlns:xlink="http://www.w3.org/1999/xlink" width="300pt" height="300pt" viewBox="0 0 300 300"><defs><symbol overflow="visible"><path d="M.453 1.594v-7.938h4.5v7.938zm.5-.5h3.5v-6.938h-3.5zm0 0"/></symbol><symbol overflow="visible" id="a"><path d="M3.547-5.953c-.65 0-1.164.242-1.547.72-.375.48-.563 1.13-.563 1.952 0 .835.188 1.49.563 1.967.383.48.898.72 1.547.72.644 0 1.156-.24 1.53-.72.376-.476.564-1.132.564-1.968 0-.822-.187-1.474-.562-1.954-.375-.477-.887-.72-1.53-.72zm0-.734c.914 0 1.648.312 2.203.937.55.617.828 1.438.828 2.47 0 1.042-.277 1.87-.828 2.483-.555.617-1.29.922-2.203.922-.93 0-1.668-.305-2.22-.922C.774-1.41.5-2.237.5-3.28c0-1.033.273-1.853.828-2.47.55-.625 1.29-.938 2.22-.938zm0 0"/></symbol><symbol overflow="visible" id="b"><path d="M.89-6.563h.876v2.688H5v-2.688h.89V0H5v-3.125H1.766V0H.89zm0 0"/></symbol><symbol overflow="visible" id="c"><path d="M.89-6.563H2.08l2.906 5.485v-5.484h.86V0H4.656L1.75-5.484V0H.89zm0 0"/></symbol></defs><g><path fill="#fff" d="M0 0h300v300H0z"/><path d="M131.402 119.102m-1.363-2.676l-.833.63m-.53-3.302l-1.665 1.254m.304-3.926l-2.5 1.883m1.137-4.555l-3.332 2.508m1.97-5.184l-4.16 3.14m2.8-5.81l-4.996 3.764m3.84-6.035l-5.703 4.297" stroke="#000" stroke-miterlimit="10" fill="none"/><path d="M131.402 119.102l20.082-2.47M131.402 119.102l-3.953 9.312" stroke-width="1.2" stroke="#000" stroke-miterlimit="10" fill="none"/><path d="M127.45 128.414l-3.954 9.316" stroke-width="1.2" stroke="#00f" stroke-miterlimit="10" fill="none"/><path d="M151.484 116.633m1.89-2.332l-.913-.503m2.802-1.828l-1.825-1.01m3.71-1.32l-2.733-1.52m4.625-.81l-3.65-2.025m5.536-.308l-4.56-2.528m6.446.195l-5.468-3.032m7.074 1.05l-6.246-3.46" stroke="#000" stroke-miterlimit="10" fill="none"/><path d="M165.29 131.434l-13.806-14.8M161.297 98.934l19.863 3.86" stroke-width="1.2" stroke="#000" stroke-miterlimit="10" fill="none"/><path d="M183.625 122.88m.16-2.997l-1.035.13m1.19-3.126l-2.07.254m2.228-3.25l-3.106.383m3.262-3.378l-4.137.507m4.297-3.504l-5.176.637m5.332-3.633l-6.21.766m6.343-3.31l-7.09.872" stroke="#000" stroke-miterlimit="10" fill="none"/><path d="M183.625 122.88l-18.336 8.554M200.203 134.484l-16.578-11.605M165.29 131.434l-1.767 20.156" stroke-width="1.2" stroke="#000" stroke-miterlimit="10" fill="none"/><path d="M165.29 131.434m-2.966.468l.34.985m-3.305-.516l.68 1.974m-3.642-1.504l1.02 2.957m-3.984-2.488l1.36 3.94m-4.32-3.473l1.694 4.93m-4.66-4.46l2.04 5.913m-4.556-5.515l2.324 6.753" stroke="#000" stroke-miterlimit="10" fill="none"/><path d="M163.523 151.59l16.58 11.605" stroke-width="1.2" stroke="#000" stroke-miterlimit="10" fill="none"/><path d="M198.44 154.645l-19.846 5.316 3.02 6.474zm0 0"/><path d="M198.44 154.645l1.763-20.16M215.02 166.25l-16.58-11.605" stroke-width="1.2" stroke="#000" stroke-miterlimit="10" fill="none"/><path d="M200.203 134.484l19.852-5.316-3.02-6.473zm0 0"/><path d="M218.543 125.93l16.578 11.605" stroke-width="1.2" stroke="#000" stroke-miterlimit="10" fill="none"/><path d="M233.36 157.695l5.32-19.847-7.118-.62zm0 0"/><path d="M233.36 157.695l-18.34 8.555M249.934 169.3l-16.575-11.605M215.02 166.25l-1.762 20.156" stroke-width="1.2" stroke="#000" stroke-miterlimit="10" fill="none"/><path d="M215.02 166.25m-2.9.773l.442.946m-3.34-.17l.883 1.89m-3.78-1.112l1.323 2.836m-4.222-2.06l1.765 3.78m-4.66-3.005l2.204 4.725m-5.1-3.95l2.643 5.673m-5.105-5.012l3.016 6.473" stroke="#000" stroke-miterlimit="10" fill="none"/><path d="M213.258 186.406l16.574 11.61M229.832 198.016l18.34-8.555M248.172 189.46l1.762-20.16" stroke-width="1.2" stroke="#000" stroke-miterlimit="10" fill="none"/><path d="M248.172 189.46l14.53 14.532 4.095-5.85zm0 0"/><path d="M257.75 195.566h15v11h-15zm0 0" fill="#fff"/><g fill="#f00"><use xlink:href="#a" x="257.75" y="204.229"/><use xlink:href="#b" x="265.092" y="204.229"/></g><path d="M123.496 137.73l-10.043 1.23" stroke-width="1.2" stroke="#00f" stroke-miterlimit="10" fill="none"/><path d="M113.453 138.96l-10.043 1.235M135.676 153.89l-6.09-8.08" stroke-width="1.2" stroke="#000" stroke-miterlimit="10" fill="none"/><path d="M129.586 145.81l-6.09-8.08" stroke-width="1.2" stroke="#00f" stroke-miterlimit="10" fill="none"/><path d="M120.496 132.23h7v11h-7zm0 0" fill="#fff"/><use xlink:href="#c" x="120.496" y="140.894" fill="#00f"/><path d="M103.41 140.195l-7.906 18.63M95.504 158.824l12.18 16.16M92.922 163.305l9.742 12.93M75.418 161.293l20.086-2.47M107.684 174.984l-7.907 18.63M107.684 174.984l10.043-1.234" stroke-width="1.2" stroke="#000" stroke-miterlimit="10" fill="none"/><path d="M117.727 173.75l10.043-1.234" stroke-width="1.2" stroke="#f00" stroke-miterlimit="10" fill="none"/><path d="M99.777 193.613l-20.082 2.465M97.19 189.133l-16.07 1.972M79.695 196.078l-12.18-16.16M67.516 179.918l7.902-18.625M72.688 179.918l6.324-14.902M67.516 179.918l-10.043 1.234" stroke-width="1.2" stroke="#000" stroke-miterlimit="10" fill="none"/><path d="M57.473 181.152l-10.043 1.235M47.43 182.387l-6.09-8.082" stroke-width="1.2" stroke="#f00" stroke-miterlimit="10" fill="none"/><path d="M41.34 174.305l-6.09-8.078" stroke-width="1.2" stroke="#000" stroke-miterlimit="10" fill="none"/><path d="M43.43 176.887h8v11h-8zm0 0" fill="#fff"/><use xlink:href="#a" x="43.43" y="185.55" fill="#f00"/><path d="M127.77 172.516l3.953-9.313" stroke-width="1.2" stroke="#f00" stroke-miterlimit="10" fill="none"/><path d="M131.723 163.203l3.953-9.312" stroke-width="1.2" stroke="#000" stroke-miterlimit="10" fill="none"/><path d="M123.77 167.016h8v11h-8zm0 0" fill="#fff"/><use xlink:href="#a" x="123.77" y="175.679" fill="#f00"/></g></svg>
